icons/rocket-2-line.svg

<svg xmlns="http://www.w3.org/2000/svg" width="24" height="24" fill="none"><g clip-path="url(#a)"><g><path fill="#121212" d="M15.502 20C14.8404 21.5823 13.5823 22.8405 12 23.502C10.4177 22.8405 9.15956 21.5823 8.498 20H10.758C11.084 20.489 11.505 20.912 12 21.243C12.495 20.913 12.916 20.489 13.243 20H15.502ZM18 14.805L20 17.073V19H4V17.073L6 14.805V9.00002C6 5.51702 8.504 2.55302 12 1.45502C15.496 2.55302 18 5.51702 18 9.00002V14.805ZM17.27 17L16 15.56V9.00002C16 6.68202 14.43 4.57002 12 3.58002C9.57 4.57002 8 6.68102 8 9.00002V15.56L6.73 17H17.27ZM12 11C11.4696 11 10.9609 10.7893 10.5858 10.4142C10.2107 10.0392 10 9.53045 10 9.00002C10 8.46958 10.2107 7.96088 10.5858 7.5858C10.9609 7.21073 11.4696 7.00002 12 7.00002C12.5304 7.00002 13.0391 7.21073 13.4142 7.5858C13.7893 7.96088 14 8.46958 14 9.00002C14 9.53045 13.7893 10.0392 13.4142 10.4142C13.0391 10.7893 12.5304 11 12 11Z"/></g></g><defs><clipPath id="a"><rect width="24" height="24" fill="white"/></clipPath></defs></svg>

<svg width="24" height="24" fill="none" xmlns="http://www.w3.org/2000/svg"><g clip-path="url(#a)"><path d="M15.502 20A6.523 6.523 0 0 1 12 23.502 6.523 6.523 0 0 1 8.498 20h2.26c.326.489.747.912 1.242 1.243.495-.33.916-.754 1.243-1.243h2.259ZM18 14.805l2 2.268V19H4v-1.927l2-2.268V9c0-3.483 2.504-6.447 6-7.545C15.496 2.553 18 5.517 18 9v5.805ZM17.27 17 16 15.56V9c0-2.318-1.57-4.43-4-5.42C9.57 4.57 8 6.681 8 9v6.56L6.73 17h10.54ZM12 11a2 2 0 1 1 0-4 2 2 0 0 1 0 4Z" /></g><defs><clipPath id="a"><path fill="#fff" d="M0 0h24v24H0z"/></clipPath></defs></svg>
